austria/municipalities/41006.svg

<?xml version="1.0" encoding="UTF-8"?>
<!DOCTYPE svg PUBLIC "-//W3C//DTD SVG 1.1//EN" "http://www.w3.org/Graphics/SVG/1.1/DTD/svg11.dtd">
<svg xmlns="http://www.w3.org/2000/svg" version="1.1" width="166px" height="207px" style="shape-rendering:geometricPrecision; text-rendering:geometricPrecision; image-rendering:optimizeQuality; fill-rule:evenodd; clip-rule:evenodd" xmlns:xlink="http://www.w3.org/1999/xlink">
<g><path style="opacity:1" fill="#000000" d="M -0.5,-0.5 C 54.8333,-0.5 110.167,-0.5 165.5,-0.5C 165.5,43.5 165.5,87.5 165.5,131.5C 158.017,171.315 134.684,196.315 95.5,206.5C 86.8333,206.5 78.1667,206.5 69.5,206.5C 29.3806,196.049 6.0473,170.382 -0.5,129.5C -0.5,86.1667 -0.5,42.8333 -0.5,-0.5 Z"/></g>
<g><path style="opacity:1" fill="#fefffe" d="M 112.5,173.5 C 117.184,178.363 122.85,182.03 129.5,184.5C 130.661,186.378 129.994,187.378 127.5,187.5C 109.183,180.916 96.35,168.583 89,150.5C 85.2205,140.38 82.2205,130.047 80,119.5C 76.9068,101.514 73.9068,83.514 71,65.5C 64.1298,38.2926 47.6298,19.4592 21.5,9C 15.5811,7.55919 9.58109,6.72586 3.5,6.5C 3.5,5.5 3.5,4.5 3.5,3.5C 38.2938,3.82826 61.4605,20.4949 73,53.5C 77.6109,76.1072 81.9442,98.7739 86,121.5C 89.1594,136.645 94.4927,150.979 102,164.5C 105.072,168.078 108.572,171.078 112.5,173.5 Z"/></g>
<g><path style="opacity:1" fill="#cb0000" d="M 112.5,173.5 C 102.424,163.535 95.5904,151.535 92,137.5C 85.8186,112.747 80.8186,87.7468 77,62.5C 70.948,33.7757 54.1147,14.2757 26.5,4C 71.4988,3.50001 116.499,3.33334 161.5,3.5C 161.667,47.5013 161.5,91.5013 161,135.5C 157.238,154.194 148.404,170.028 134.5,183C 132.833,183.667 131.167,183.667 129.5,183C 123.692,180.01 118.025,176.844 112.5,173.5 Z"/></g>
<g><path style="opacity:1" fill="#006632" d="M 3.5,8.5 C 12.9122,8.43833 21.9122,10.2717 30.5,14C 46.5483,23.3815 58.3816,36.5481 66,53.5C 70.8931,74.9678 74.8931,96.6345 78,118.5C 80.8714,138.139 88.2048,155.805 100,171.5C 106.859,179.016 115.025,184.682 124.5,188.5C 125.711,189.274 125.711,190.107 124.5,191C 102.304,203.632 78.9706,205.966 54.5,198C 26.4712,185.3 9.63785,163.8 4,133.5C 3.50001,91.8347 3.33334,50.168 3.5,8.5 Z"/></g>
<g><path style="opacity:1" fill="#000000" d="M 93.5,98.5 C 95.223,99.8001 97.3897,100.467 100,100.5C 102.167,100.167 104.333,99.8333 106.5,99.5C 111.093,89.9783 115.927,80.645 121,71.5C 126.069,81.1433 131.235,90.6433 136.5,100C 140.541,100.827 144.541,100.66 148.5,99.5C 141.301,85.8339 133.968,72.3339 126.5,59C 134.269,45.565 141.602,31.8984 148.5,18C 144.5,17.3333 140.5,17.3333 136.5,18C 131.206,27.4201 126.04,36.9201 121,46.5C 116.368,37.0425 111.535,27.7092 106.5,18.5C 102.205,17.3391 97.8713,17.1725 93.5,18C 100.565,31.7042 107.565,45.3709 114.5,59C 109.057,71.3913 102.723,83.2246 95.5,94.5C 101.036,82.5952 106.703,70.7619 112.5,59C 105.462,44.7623 98.6287,30.5957 92,16.5C 97.2,15.0787 102.367,15.2454 107.5,17C 111.902,25.6421 116.402,34.1421 121,42.5C 125.608,33.6082 130.442,24.9415 135.5,16.5C 140.111,15.3897 144.778,15.2231 149.5,16C 149.957,16.414 150.291,16.914 150.5,17.5C 143.309,31.381 135.976,45.2144 128.5,59C 135.976,72.7856 143.309,86.619 150.5,100.5C 145.167,101.833 139.833,101.833 134.5,100.5C 129.775,92.0532 125.275,83.3866 121,74.5C 116.628,83.4114 112.128,92.2447 107.5,101C 102.136,101.829 96.8023,101.663 91.5,100.5C 91.8555,99.4777 92.5222,98.811 93.5,98.5 Z"/></g>
<g><path style="opacity:1" fill="#fefffe" d="M 93.5,98.5 C 95.1042,97.713 95.7709,96.3797 95.5,94.5C 102.723,83.2246 109.057,71.3913 114.5,59C 107.565,45.3709 100.565,31.7042 93.5,18C 97.8713,17.1725 102.205,17.3391 106.5,18.5C 111.535,27.7092 116.368,37.0425 121,46.5C 126.04,36.9201 131.206,27.4201 136.5,18C 140.5,17.3333 144.5,17.3333 148.5,18C 141.602,31.8984 134.269,45.565 126.5,59C 133.968,72.3339 141.301,85.8339 148.5,99.5C 144.541,100.66 140.541,100.827 136.5,100C 131.235,90.6433 126.069,81.1433 121,71.5C 115.927,80.645 111.093,89.9783 106.5,99.5C 104.333,99.8333 102.167,100.167 100,100.5C 97.3897,100.467 95.223,99.8001 93.5,98.5 Z"/></g>
<g><path style="opacity:1" fill="#000000" d="M 32.5,65.5 C 40.6561,65.009 48.6561,65.8424 56.5,68C 58.032,68.6995 59.032,69.8662 59.5,71.5C 58.3844,76.5907 57.7178,81.7573 57.5,87C 58.9385,95.1491 60.2719,103.316 61.5,111.5C 61.4247,115.555 60.9247,119.555 60,123.5C 55.7816,134.272 51.2816,144.939 46.5,155.5C 41.6158,159.659 37.1158,159.325 33,154.5C 28.796,144.88 24.796,135.214 21,125.5C 16.2647,115.354 16.598,105.354 22,95.5C 22.7464,86.7038 22.413,78.0372 21,69.5C 24.7789,67.9039 28.6122,66.5706 32.5,65.5 Z"/></g>
<g><path style="opacity:1" fill="#fbfbfb" d="M 32.5,67.5 C 40.9122,66.9357 49.0789,67.9357 57,70.5C 57.0238,76.1792 56.5238,81.8459 55.5,87.5C 55.9323,94.0987 57.4323,100.432 60,106.5C 60.6377,112.626 59.971,118.626 58,124.5C 54.3728,134.066 50.3728,143.399 46,152.5C 43.2524,158.271 39.5857,158.937 35,154.5C 28.9225,142.332 23.9225,129.665 20,116.5C 19.4129,108.842 20.7462,101.509 24,94.5C 24.1667,91.8333 24.3333,89.1667 24.5,86.5C 24.2516,80.7662 23.5849,75.0996 22.5,69.5C 26.0399,69.2474 29.3733,68.5808 32.5,67.5 Z"/></g>
<g><path style="opacity:1" fill="#000000" d="M 25.5,75.5 C 26.4971,74.2875 27.4971,74.4542 28.5,76C 27.4232,76.4696 26.4232,76.3029 25.5,75.5 Z"/></g>
<g><path style="opacity:1" fill="#000000" d="M 95.5,94.5 C 95.7709,96.3797 95.1042,97.713 93.5,98.5C 93.2291,96.6203 93.8958,95.287 95.5,94.5 Z"/></g>
<g><path style="opacity:1" fill="#000000" d="M 36.5,105.5 C 45.3306,104.837 49.8306,108.837 50,117.5C 47.6955,124.792 42.8621,127.292 35.5,125C 30.7795,121.702 29.2795,117.202 31,111.5C 32.0209,108.65 33.8542,106.65 36.5,105.5 Z"/></g>
<g><path style="opacity:1" fill="#006632" d="M 38.5,106.5 C 44.3698,106.704 47.7031,109.704 48.5,115.5C 47.9085,120.592 45.0752,123.592 40,124.5C 32.5326,122.441 30.1992,117.775 33,110.5C 34.8121,109.023 36.6455,107.69 38.5,106.5 Z"/></g>
<g><path style="opacity:1" fill="#fefffe" d="M -0.5,129.5 C 6.0473,170.382 29.3806,196.049 69.5,206.5C 46.1667,206.5 22.8333,206.5 -0.5,206.5C -0.5,180.833 -0.5,155.167 -0.5,129.5 Z"/></g>
<g><path style="opacity:1" fill="#fefffe" d="M 165.5,131.5 C 165.5,156.5 165.5,181.5 165.5,206.5C 142.167,206.5 118.833,206.5 95.5,206.5C 134.684,196.315 158.017,171.315 165.5,131.5 Z"/></g>
</svg>

<svg xmlns="http://www.w3.org/2000/svg" width="166" height="207" style="shape-rendering:geometricPrecision;text-rendering:geometricPrecision;image-rendering:optimizeQuality;fill-rule:evenodd;clip-rule:evenodd"><path style="opacity:1" d="M-.5-.5h166v132c-7.483 39.815-30.816 64.815-70 75h-26c-40.12-10.451-63.453-36.118-70-77V-.5z"/><path style="opacity:1" fill="#fefffe" d="M112.5 173.5c4.684 4.863 10.35 8.53 17 11 1.161 1.878.494 2.878-2 3-18.317-6.584-31.15-18.917-38.5-37a215.206 215.206 0 0 1-9-31 5300.698 5300.698 0 0 1-9-54C64.13 38.293 47.63 19.46 21.5 9a90.042 90.042 0 0 0-18-2.5v-3c34.794.328 57.96 16.995 69.5 50a2815.118 2815.118 0 0 1 13 68 152.05 152.05 0 0 0 16 43c3.072 3.578 6.572 6.578 10.5 9z"/><path style="opacity:1" fill="#cb0000" d="M112.5 173.5c-10.076-9.965-16.91-21.965-20.5-36a808.321 808.321 0 0 1-15-75C70.948 33.776 54.115 14.276 26.5 4c44.999-.5 89.999-.667 135-.5.167 44.001 0 88.001-.5 132-3.762 18.694-12.596 34.528-26.5 47.5-1.667.667-3.333.667-5 0a282.845 282.845 0 0 1-17-9.5z"/><path style="opacity:1" fill="#006632" d="M3.5 8.5c9.412-.062 18.412 1.772 27 5.5C46.548 23.381 58.382 36.548 66 53.5a796.71 796.71 0 0 1 12 65c2.871 19.639 10.205 37.305 22 53 6.859 7.516 15.025 13.182 24.5 17 1.211.774 1.211 1.607 0 2.5-22.196 12.632-45.53 14.966-70 7C26.471 185.3 9.638 163.8 4 133.5c-.5-41.665-.667-83.332-.5-125z"/><path style="opacity:1" d="M93.5 98.5c1.723 1.3 3.89 1.967 6.5 2l6.5-1a552.963 552.963 0 0 1 14.5-28 1135.013 1135.013 0 0 0 15.5 28.5c4.041.827 8.041.66 12-.5a1792.922 1792.922 0 0 0-22-40.5 731.658 731.658 0 0 0 22-41c-4-.667-8-.667-12 0A1171.52 1171.52 0 0 0 121 46.5a702.177 702.177 0 0 0-14.5-28 28.725 28.725 0 0 0-13-.5 8682.18 8682.18 0 0 1 21 41 258.232 258.232 0 0 1-19 35.5 1738.13 1738.13 0 0 1 17-35.5A2417.78 2417.78 0 0 1 92 16.5c5.2-1.421 10.367-1.255 15.5.5A906.324 906.324 0 0 0 121 42.5a482.544 482.544 0 0 1 14.5-26c4.611-1.11 9.278-1.277 14-.5.457.414.791.914 1 1.5a2480.473 2480.473 0 0 1-22 41.5 2480.473 2480.473 0 0 1 22 41.5c-5.333 1.333-10.667 1.333-16 0a475.293 475.293 0 0 1-13.5-26 986.24 986.24 0 0 1-13.5 26.5 43.233 43.233 0 0 1-16-.5c.356-1.022 1.022-1.689 2-2z"/><path style="opacity:1" fill="#fefffe" d="M93.5 98.5c1.604-.787 2.27-2.12 2-4a258.232 258.232 0 0 0 19-35.5 8682.18 8682.18 0 0 0-21-41 28.725 28.725 0 0 1 13 .5 702.177 702.177 0 0 1 14.5 28A1171.52 1171.52 0 0 1 136.5 18c4-.667 8-.667 12 0a731.658 731.658 0 0 1-22 41 1792.922 1792.922 0 0 1 22 40.5 24.551 24.551 0 0 1-12 .5A1135.013 1135.013 0 0 1 121 71.5a552.963 552.963 0 0 0-14.5 28l-6.5 1c-2.61-.033-4.777-.7-6.5-2z"/><path style="opacity:1" d="M32.5 65.5a73.28 73.28 0 0 1 24 2.5c1.532.7 2.532 1.866 3 3.5a89.652 89.652 0 0 0-2 15.5 963.198 963.198 0 0 1 4 24.5 57.08 57.08 0 0 1-1.5 12 669.216 669.216 0 0 1-13.5 32c-4.884 4.159-9.384 3.825-13.5-1a795.187 795.187 0 0 1-12-29c-4.735-10.146-4.402-20.146 1-30 .746-8.796.413-17.463-1-26a92.968 92.968 0 0 1 11.5-4z"/><path style="opacity:1" fill="#fbfbfb" d="M32.5 67.5c8.412-.564 16.579.436 24.5 3a93.031 93.031 0 0 1-1.5 17 58.172 58.172 0 0 0 4.5 19c.638 6.126-.029 12.126-2 18a356.334 356.334 0 0 1-12 28c-2.748 5.771-6.414 6.437-11 2a235.128 235.128 0 0 1-15-38c-.587-7.658.746-14.991 4-22l.5-8c-.248-5.734-.915-11.4-2-17 3.54-.253 6.873-.92 10-2z"/><path style="opacity:1" d="M25.5 75.5c.997-1.213 1.997-1.046 3 .5-1.077.47-2.077.303-3-.5zM95.5 94.5c.27 1.88-.396 3.213-2 4-.27-1.88.396-3.213 2-4zM36.5 105.5c8.83-.663 13.33 3.337 13.5 12-2.304 7.292-7.138 9.792-14.5 7.5-4.72-3.298-6.22-7.798-4.5-13.5 1.02-2.85 2.854-4.85 5.5-6z"/><path style="opacity:1" fill="#006632" d="M38.5 106.5c5.87.204 9.203 3.204 10 9-.592 5.092-3.425 8.092-8.5 9-7.467-2.059-9.8-6.725-7-14a60.011 60.011 0 0 1 5.5-4z"/><path style="opacity:1" fill="#fefffe" d="M-.5 129.5c6.547 40.882 29.88 66.549 70 77h-70v-77zM165.5 131.5v75h-70c39.184-10.185 62.517-35.185 70-75z"/></svg>
